assets/gi/gi-abstract-063.svg

<svg xmlns="http://www.w3.org/2000/svg" width="100%" height="100%" viewBox="-35.84 -35.84 583.68 583.68"><path d="m21,21v117.5h22.325v58.75h-22.325v117.5h22.325v58.75h-22.325v117.5h117.4999v-22.1781h235v22.1781h117.5v-117.5h-22.1783v-58.75h22.1783v-117.5h-22.1783v-58.75h22.1783v-117.5h-117.5v22.325h-235v-22.325h-117.4999zm58.75,12.3375c25.5906,0 46.2654,20.8202 46.2654,46.4125s-20.6748,46.2656-46.2654,46.2656-46.4125-20.6733-46.4125-46.2656 20.8187-46.4125 46.4125-46.4125zm352.5,0c25.5906,0 46.2654,20.8202 46.2654,46.4125s-20.6748,46.2656-46.2654,46.2656-46.4125-20.6733-46.4125-46.2656 20.8187-46.4125 46.4125-46.4125zm-293.75,23.6469h110.5967v52.1406h-51.8467v117.5h51.8467v22.4719h-110.5967v-51.8469h-81.5158v-58.75h81.5158v-81.5156zm124.4029,0h110.5971v81.5156h81.6625v58.75h-81.6625v51.8469h-110.5971v-22.4719h51.8471v-117.5h-51.8471v-52.1406zm-6.9029,64.4781c25.5901,0 46.2654,20.8202 46.2654,46.4125s-20.6753,46.2656-46.2654,46.2656-46.4125-20.6733-46.4125-46.2656 20.8187-46.4125 46.4125-46.4125zm-176.25,88.125c25.5906,0 46.2654,20.8202 46.2654,46.4125s-20.6748,46.2656-46.2654,46.2656-46.4125-20.6733-46.4125-46.2656 20.8187-46.4125 46.4125-46.4125zm352.5,0c25.5906,0 46.2654,20.8202 46.2654,46.4125s-20.6748,46.2656-46.2654,46.2656-46.4125-20.6733-46.4125-46.2656 20.8187-46.4125 46.4125-46.4125zm-293.75,53.3156h110.5967v22.4719h-51.8467v117.5h51.8467v52.2875h-110.5967v-81.6625h-81.5158v-58.75h81.5158v-51.8469zm124.4029,0h110.5971v51.8469h81.6625v58.75h-81.6625v81.6625h-110.5971v-52.2875h51.8471v-117.5h-51.8471v-22.4719zm-6.9029,34.8094c25.5901,0 46.2654,20.8202 46.2654,46.4125s-20.6753,46.2656-46.2654,46.2656-46.4125-20.6733-46.4125-46.2656 20.8187-46.4125 46.4125-46.4125zm-176.25,88.125c25.5906,0 46.2654,20.8203 46.2654,46.4125s-20.6748,46.2656-46.2654,46.2656-46.4125-20.6733-46.4125-46.2656 20.8187-46.4125 46.4125-46.4125zm352.5,0c25.5906,0 46.2654,20.8203 46.2654,46.4125s-20.6748,46.2656-46.2654,46.2656-46.4125-20.6733-46.4125-46.2656 20.8187-46.4125 46.4125-46.4125z"/></svg>

<svg xmlns="http://www.w3.org/2000/svg" width="100%" height="100%" viewBox="-35.84 -35.84 583.68 583.68"><path d="M21 21v117.5h22.325v58.75H21v117.5h22.325v58.75H21V491h117.5v-22.178h235V491H491V373.5h-22.178v-58.75H491v-117.5h-22.178V138.5H491V21H373.5v22.325h-235V21H21zm58.75 12.338c25.59 0 46.265 20.82 46.265 46.412s-20.674 46.266-46.265 46.266-46.413-20.674-46.413-46.266 20.82-46.413 46.413-46.413zm352.5 0c25.59 0 46.265 20.82 46.265 46.412s-20.674 46.266-46.265 46.266-46.413-20.674-46.413-46.266 20.82-46.413 46.413-46.413zM138.5 56.983h110.597v52.141H197.25v117.5h51.847v22.472H138.5V197.25H56.984V138.5H138.5V56.984zm124.403 0H373.5V138.5h81.662v58.75H373.5v51.847H262.903v-22.472h51.847v-117.5h-51.847v-52.14zM256 121.462c25.59 0 46.265 20.82 46.265 46.413S281.59 214.141 256 214.141s-46.413-20.674-46.413-46.266 20.82-46.413 46.413-46.413zM79.75 209.587c25.59 0 46.265 20.82 46.265 46.413s-20.674 46.266-46.265 46.266S33.337 281.592 33.337 256s20.82-46.413 46.413-46.413zm352.5 0c25.59 0 46.265 20.82 46.265 46.413s-20.674 46.266-46.265 46.266-46.413-20.674-46.413-46.266 20.82-46.413 46.413-46.413zM138.5 262.904h110.597v22.472H197.25v117.5h51.847v52.288H138.5V373.5H56.984v-58.75H138.5v-51.847zm124.403 0H373.5v51.847h81.662v58.75H373.5v81.662H262.903v-52.287h51.847v-117.5h-51.847v-22.472zM256 297.713c25.59 0 46.265 20.82 46.265 46.412S281.59 390.391 256 390.391s-46.413-20.674-46.413-46.266 20.82-46.413 46.413-46.413zM79.75 385.837c25.59 0 46.265 20.82 46.265 46.413s-20.674 46.266-46.265 46.266-46.413-20.674-46.413-46.266 20.82-46.413 46.413-46.413zm352.5 0c25.59 0 46.265 20.82 46.265 46.413s-20.674 46.266-46.265 46.266-46.413-20.674-46.413-46.266 20.82-46.413 46.413-46.413z"/></svg>
